X:21
T:Saltarello
T:for couples
P:V1 C1, V2 C2, V3 C1, V4 C2, V5 C1, V6 C2, V7 C1, V8 C2
C:Anon 14th C, British Library MS Add. 29987
N:Drone A/E
M:6/8
L:1/8
K:A dorian
P:Verse 1,2
e2e d2e | A2e A2e | ede cBc | d2e dec || 
P:Chorus
d2e dcd | c2A cBc | G2d G2d | ede cdc | ede B3 | c2B AGA | B6 | dcd ede |
 cBc cBc | d2e dec | B2c AGA | BAB GFG | A6 | ede Be=f | ede B3 |  
[1 cBc de=f | ede cBc | d2e dec | edc Bcd | cBA BGA | "^To verse 2,4,6,8"B6 ||  
[2 cBc d2e | d2c cBc | GFG A2B | cBc A3 | edc d2B | c2e dcd | ede A2e | A2B c2B | A2A "^To verse 3,5,7"GFG | A6 || 
P:Verse 3,4
a6 | a3 g=fg | aga e^de | gfg cBc | de=f e3 | \
 d2c B2d | cBc A3 | e3 e3 || 
P:Verse 5,6
B6 | c2B c2A | B3 A3 | G2A GFG | E3 EDE | \
P:Verse 7,8
^G3 G3 | A2^G AGA | A2^G A2B | cBc A^GA | \
ede cBc | A2B ^G2A | B3 A2B | cBc ABc | A3 c2d | 
ede cde | c2g f2a | gfg e^de | A2c B2c | A2e d2e | \
c2g f2g | efg efg | a3 efg | d2e cde | 
B3 A2B | c2B c2A | B3 A2B | cde B2c | B2c ABc | \
A^GA GFG | A3 A2B | c2c B2c | A3 A2A | e3 e3 || 

